X:446
T:Galician Solstice Song
Z:Jack Campin, http://www.campin.me.uk/
F:Jack Campin's Nine-Note Tunebook
% last edit 03-02-2013
N:learnt from my one-time bandmate Panda Smith,
N:who got it at a Rainbow Gathering in Portugal
M:2/4
L:1/8
Q:1/4=100
K:EMin
  AA/G/ F/E/D|GG Fz|A/B/A/G/ F/E/D|GG Fz:|
|:EE/E/ FF/F/|DC Cz|EE/E/    FF/F/|DE Ez:|

